X:1
T:4 Mélodies
T:Les petits oiseaux
T:à Madame Alfred Ott
T:4 Mélodies
T:3. Les petits oiseaux
T:Paroles et Musique de Marie Jaëll 
T:Traduction française de Charles Grandmougin 
T:Creative Commons copyright waiver (CC0 1.0 Universal)
T:Creative Commons copyright waiver (CC0 1.0 Universal)
T:Creative Commons copyright waiver (CC0 1.0 Universal)
T:Creative Commons copyright waiver (CC0 1.0 Universal)
T:Creative Commons copyright waiver (CC0 1.0 Universal)
C:Marie Jaëll
Z:Marie Jaëll (original lyrics)
Z:Creative Commons copyright waiver (CC0 1.0 Universal)
%%score 1 2
L:1/8
Q:1/4=52
M:4/4
K:D
V:1 treble nm="Chant\nVoice"
V:2 bass nm="Piano"
V:1
"^Lent" z8 | z8 |"^General time signature 4/4  (Voice)" z2 z2 z2 z2 | z8 | z8 | z8 | z8 | z8 | z8 | %9
w: |||||||||
 A2 A B c3 c | f8- | f4 =f2 z2 | z2 _e3 e d =c | =B6 B2 | _B2 =F4 F2 | D2- D z D4 | %16
w: Au bois quand vint l'au-|\- ro-|* re,|Les pe- tits oi-|seaux di-|\- saient près de|moi _ Ta|
 (D3 F) (FA) d2 | f8- | f4 e2 z3/2 A/ | A3 B c2 c2 | f4- f2 z2 | z2 A2 A4- | A2 A2 A3 B | ^G8 | %24
w: bel- * le _ t'a-|\- do-|* re Tou-|\- jours, elle est à|toi. _|Ils chan-|* tent mil- le|cho-|
 F2- F z z2 F2 | c6 c2 | c6 c2 | A8 | z8 |[M:4/4]"^General time signature 4/4" z2 z d c c B B | %30
w: \- ses _ Sa|voix, ses|yeux char-|\- mants,||Ses bel- les lèv- res|
 (e2 d2) c2 B2 | ^A6 B2 | e6 =A2 | A8- | A4 z2 A A | A4 d3 e | c4 c2 z2 | A2 A A B3 c | %38
w: ro- * ses, Son|cœur, ses|doux ser-|ments.|_ Leurs joy-|\- eu- ses vo-|lé- es|Par- lent de sa beau-|
 A2- A z A2 A2 | A3 A d2 d2 | f8- | f4 F2 F2 | E2 E2 E4- | E6 E2 | E8- | E4 z4 | z8 | %47
w: té _ Qu'el- les|voient sous les feuil-|lé-|* es, Pen-|dant les nuits|_ d'é-|\- té!|_||
[M:4/4]"^General time signature 4/4" z4 z2 B2 | A3 A d3 A | ^A2 B2 z4 | e4 =c4 | z G A _B A2 z2 | %52
w: Chan-|son trop peu dis-|\- crè- te,|E- cho|de mon bon- heur,|
 z8 | z2 A A A4 | z2 A4 A2 | B3 B B4 | _B2 z2 z4 | z2 e4 d2 | (g8- | g3 c) (c3 d) | d6- d z || %61
w: |Ven- ais- tu|des oi-|\- seaux en fê-|te|Ou de|toi|_ _ mon _|cœur! _|
[M:3/4]"^General time signature 3/4 (Voice stave to be hidden)" z6 | z6 | z6 | z6 | z6 | z6 | z6 |] %68
w: |||||||
V:2
 z8 | z8 |[M:12/8]"^Local time signature 12/8  (Piano)" z2 z2 z2 z2 | z8 | z8 | z8 | z8 | z8 | z8 | %9
 z8 | z8 | z8 | z8 | z8 | z8 | z8 | z8 | z8 | z8 | z8 | z8 | %21
[M:4/4]"^Piano treble clef in 4/4\nPiano bass clef in 12/8\n" z2 z2 z2 z2 | z8 | z8 | z8 | z8 | %26
 z8 | z8 | z8 |[M:4/4]"^Piano bass clef switches to 4/4" z2 z2 z2 z2 | z8 | z8 | z8 | z8 | %34
[M:12/8]"^Local time signature 12/8 (piano)" z2 z2 z2 z2 | z8 | z8 | z8 | z8 | z8 | z8 | z8 | z8 | %43
 z8 | z8 | z8 | z8 |[M:4/4] z2 z2 z2 z2 | z8 | z8 | z8 | z8 | z8 | z8 | z8 | z8 | z8 | z8 | z8 | %59
 z8 | z8 ||[M:3/4] z2 z2 z2 | z6 | z6 | z6 | z6 | z6 | z6 |] %68

